X:62
T:Duchess of York's Favourite,The. JJo.062
S:J.Jones MS,1801,N.Shrops.
N:"D.C."marked at end of B part - finish on A part.
A:N Shropshire
Z:Neil Brookes 2006
M:6/8
L:1/8
Q:3/8=120
K:C
g/e/|c2c c>Bc|d3d2e|f2fe2d|e2g fdB|!
c2c c>Bc|d3d2e|f2e d>cd|c3-c2::!
g2g c'2b|a2dg2f|edc f2e|d2GG2e/f/|!
g2g a2a|f2fg2g|cde f2e|"D.C."e3-d2:|

